X:1
T:Erdélyi induló
T: 
C:Hungarian song
Z:Public Domain
L:1/8
Q:1/4=120
M:4/4
K:Cmin
V:1 treble nm="MusicXML Part"
%%MIDI program 0
V:1
"Cm" C>C C>E G4 |"Fm" A>G F>A"Cm" G4 |"Fm" F>E D>F"Cm" E4 |"G" D>C =B,>D"Cm" C4 | %4
"Cm" CCcB"Fm" AG A2 |"Bb" B,B,BA"Eb" GF G2 |"Fm" BAGF"Cm" GE C2 |"G" DDED"Cm" C4 |] %8

